X: 20263
T: GAMBLER'S WALTZ
C:
%R: waltz
B: Elias Howe "The Musician's Companion" 1843 p.26 #3
S: http://imslp.org/wiki/The_Musician's_Companion_(Howe,_Elias)
Z: 2015 John Chambers <jc:trillian.mit.edu>
M: 3/4
L: 1/8
K: G
% - - - - - - - - - - - - - - - - - - - - - - - - -
G>B |\
d2dBge | d2dBdB | c2cAcA | B2BGGB |\
d2dBge | d2dBdB | c2cA[GF][FD] | G2z2 :|
|: G>B |\
d2gfed | d>BG2F>G | A>FD2D>C | B,>G,B,>DG>B |\
d2gfed | d>BG2F>G | A>FD2D>F | G2z2 :|
% - - - - - - - - - - - - - - - - - - - - - - - - -

%%sep 1 1 500

